X: 31248
T: Paddy Fahey's
R: jig
M: 6/8
K: Dmixolydian
A2G EFD|A,DF AGF|G2E CEG|cBd cAG|A2G EFD|A,DF AGF|GEC cAG|1 FDD DE/F/G:|2 FDD DFA||
|:~d3 efg|f/g/af ged|cAB c2d|{cd}cAG FGA|~d3 efg|f/g/af ~g3|afd {cd}cAG|1 Ad^c ~d2A:|2 Ad^c d^cB||

